!!!COM: Bach, Johann Sebastian
!!!OTL: Fuga
!!!OMV: 2
!!!SCT: BWV 549
!!!SCA: Thematisches-systematisches Verzeichnis der musikalischen Werke von Johann Sebastian Bach (Schmieder 1990)
**kern	**kern	**kern	**kern	**kern
*MM76	*MM76	*MM76	*MM76	*MM76
*k[b-e-a-]	*k[b-e-a-]	*k[b-e-a-]	*k[b-e-a-]	*k[b-e-a-]
*M4/4	*M4/4	*M4/4	*M4/4	*M4/4
*tb32	*tb32	*tb32	*tb32	*tb32
=1	=1	=1	=1	=1
1r	16C	1r	1r	1r
.	16E-	.	.	.
.	16D	.	.	.
.	16E-	.	.	.
.	8C	.	.	.
.	8E-	.	.	.
.	4D	.	.	.
.	4GG	.	.	.
=2	=2	=2	=2	=2
1r	16C	1r	1r	1r
.	16E-	.	.	.
.	16D	.	.	.
.	16E-	.	.	.
.	16D	.	.	.
.	16F	.	.	.
.	16E-	.	.	.
.	16F	.	.	.
.	4E-	.	.	.
.	4C	.	.	.
=3	=3	=3	=3	=3
1r	16E-	1r	1r	1r
.	16G	.	.	.
.	16F	.	.	.
.	16G	.	.	.
.	16F	.	.	.
.	16A-	.	.	.
.	16G	.	.	.
.	16A-	.	.	.
.	8.G	.	.	.
.	16A-	.	.	.
.	16G	.	.	.
.	16F	.	.	.
.	16E-	.	.	.
.	16D	.	.	.
=4	=4	=4	=4	=4
1r	16E-	1r	1r	1r
.	16D	.	.	.
.	16E-	.	.	.
.	16F	.	.	.
.	8.Dt	.	.	.
.	16C	.	.	.
.	8C	.	.	.
.	16BB-	.	.	.
.	16C	.	.	.
.	8.AAt	.	.	.
.	16GG	.	.	.
=5	=5	=5	=5	=5
1r	4GG	16G	1r	1r
.	.	16B-	.	.
.	.	16A	.	.
.	.	16B-	.	.
.	4r	8G	.	.
.	.	8B-	.	.
.	8r	4A	.	.
.	16DD	.	.	.
.	16EE	.	.	.
.	8FF#	4D	.	.
.	16EE	.	.	.
.	16FF#	.	.	.
=6	=6	=6	=6	=6
1r	8GG	16G	1r	1r
.	.	16B-	.	.
.	8G	16A	.	.
.	.	16B-	.	.
.	8F#	16A	.	.
.	.	16c	.	.
.	8D	16B-	.	.
.	.	16c	.	.
.	8G	4B-	.	.
.	16GG	.	.	.
.	16AA	.	.	.
.	8BB-	4G	.	.
.	16AA	.	.	.
.	16BB-	.	.	.
=7	=7	=7	=7	=7
1r	8GG	16B-	1r	1r
.	.	16d	.	.
.	8G	16c	.	.
.	.	16d	.	.
.	8E-	16c	.	.
.	.	16e-	.	.
.	[8C	16d	.	.
.	.	16e-	.	.
.	8C]	8.d	.	.
.	8BB-	.	.	.
.	.	16e-	.	.
.	4FF#	16d	.	.
.	.	16c	.	.
.	.	16B-	.	.
.	.	16A	.	.
=8	=8	=8	=8	=8
1r	8GG	16B-	1r	1r
.	.	16A	.	.
.	8BB-	16B-	.	.
.	.	16c	.	.
.	8C	8.At	.	.
.	8D	.	.	.
.	.	16G	.	.
.	8BB	16G	.	.
.	.	16F	.	.
.	8C	16E-	.	.
.	.	16F	.	.
.	8FF	8.Dt	.	.
.	8GG	.	.	.
.	.	16C	.	.
=9	=9	=9	=9	=9
1r	4AA-	4C	16c	1r
.	.	.	16e-	.
.	.	.	16d	.
.	.	.	16e-	.
.	8EE-	4r	8c	.
.	8CC	.	8e-	.
.	8GG	8r	4d	.
.	8r	16GG	.	.
.	.	16AA	.	.
.	4r	8BB	4G	.
.	.	16AA	.	.
.	.	16BB	.	.
=10	=10	=10	=10	=10
1r	8r	8C	16c	1r
.	.	.	16e-	.
.	8EE-	8r	16d	.
.	.	.	16e-	.
.	8FF	4r	16d	.
.	.	.	16f	.
.	8GG	.	16e-	.
.	.	.	16f	.
.	8CC	8r	4e-	.
.	8r	16C	.	.
.	.	16D	.	.
.	4r	8E-	4c	.
.	.	16D	.	.
.	.	16E-	.	.
=11	=11	=11	=11	=11
1r	8r	8C	16e-	1r
.	.	.	16g	.
.	8C	8c	16f	.
.	.	.	16g	.
.	8F	8A-	16f	.
.	.	.	16a-	.
.	8D	8F	16g	.
.	.	.	16a-	.
.	8BB	8G	8.g	.
.	8C	8E-	.	.
.	.	.	16a-	.
.	4BB	8D	16g	.
.	.	.	16f	.
.	.	8G	16e-	.
.	.	.	16d	.
=12	=12	=12	=12	=12
1r	4.C	8C	16e-	1r
.	.	.	16d	.
.	.	8G	16e-	.
.	.	.	16f	.
.	.	8F#	8.dt	.
.	8BB-	8G	.	.
.	.	.	16c	.
.	8AA	8F#	8c	.
.	8GG	4G	16B-	.
.	.	.	16c	.
.	8C	.	8.At	.
.	8D	8F#	.	.
.	.	.	16G	.
=13	=13	=13	=13	=13
1r	4GG	4G	4G	16g
.	.	.	.	16b-
.	.	.	.	16a
.	.	.	.	16b-
.	4r	4r	4r	8g
.	.	.	.	8b-
.	2r	8r	2r	4a
.	.	16D	.	.
.	.	16E	.	.
.	.	8F#	.	4d
.	.	16E	.	.
.	.	16F#	.	.
=14	=14	=14	=14	=14
1r	1r	8G	1r	16g
.	.	.	.	16b-
.	.	8e-	.	16a
.	.	.	.	16b-
.	.	8c	.	16a
.	.	.	.	16cc
.	.	8d	.	16b-
.	.	.	.	16cc
.	.	8G	.	4b-
.	.	16G	.	.
.	.	16A	.	.
.	.	8B-	.	4g
.	.	16A	.	.
.	.	16B-	.	.
=15	=15	=15	=15	=15
1r	1r	8G	1r	16b-
.	.	.	.	16dd
.	.	8g	.	16cc
.	.	.	.	16dd
.	.	8e-	.	16cc
.	.	.	.	16ee-
.	.	8c	.	16dd
.	.	.	.	16ee-
.	.	8F#	.	8.dd
.	.	8d	.	.
.	.	.	.	16ee-
.	.	8e	.	16dd
.	.	.	.	16c
.	.	8f#	.	16b-
.	.	.	.	16a
=16	=16	=16	=16	=16
1r	1r	[4g	1r	16b-
.	.	.	.	16a
.	.	.	.	16b-
.	.	.	.	16cc
.	.	16g]	.	8a
.	.	16c	.	.
.	.	[8f	.	16b
.	.	.	.	16cc
.	.	8f]	.	16b
.	.	.	.	16g
.	.	16e-	.	16cc
.	.	16f	.	16dd
.	.	16d	.	8.bt
.	.	16a-	.	.
.	.	16g	.	.
.	.	16f	.	16cc
==	==	==	==	==
*-	*-	*-	*-	*-
!!!ENC: Peter van Kranenburg (peter@musical-style-recognition.net)
!!!END: 2006-11-9
